X:1
T:G Major Samuel Holyoke, 1791 Revised 1803
T:Isaac Watts, 1709 (Hymn 162, Book 2)     86. 86. (C. M.)
T:Ringe Treble-Tenor-Bass from The ColumbianRepository , 1803; Counter written  by B. C. Johnston, 2016.
%%score [ 1 2 3 4 ]
L:1/8
Q:1/4=70
M:4/4
K:G
V:1 treble nm="Tr." snm="Tr."
V:2 treble nm="C." snm="C."
V:3 treble-8 nm="T." snm="T."
V:4 bass nm="B." snm="B."
V:1
"^1. My thoughts surmount these lower skies,     And  look     with–in  the   veil;   There springs of  end – less        plea – sure  rise,       The" G2 | %1
 B2 AB/c/ B2 G2 | cBAG d3 g | fedc B2 TA2 | G4 z2 d2 | GA/B/ BA GA/B/ B2 | cd/e/ dc B3 A | %7
"^1. wa   –   ters   ne  –  ver    fail.    There   I      be –hold,  with   sweet  de–light,    The    bles – sed  Three  in        One;    And  strong  affections" B>c d e/f/ g>f Te2 | %8
 d4 z2 g2 | dg fe dg fe | dg fe d3 c | Be dc Be d^c | d4 z2 f2 | g2 dc B2 B2 | %14
"^1.  fix                  my   sight         On      God's    in  –  car  –  nate     Son." c>d e d/c/ B3 ^c | %15
 de dc B2 TA2 | G6 |] %17
V:2
 G2 | B2 AG/F/ G2 B2 | AGFE D2 D2 | FGBc B2 TA2 | B4 z2 F2 | BA/G/ DF GF/G/ G2 | cB/A/ BA G3 F | %7
 G>A B G/F/ E>F TE2 | F4 z2 G2 | BG FE BG FE | BG AE D3 F | G2 F2 GE DG | F6 F2 | G2 Ac B2 G2 | %14
 A>B c d/c/ B3 G | FA BA G2 TA2 | B6 |] %17
V:3
"^2. His  promise stands for ev   –   er  firm,   His      grace  shall  ne'er  de–part;        He   binds  my    name    up   –  on        his  arm,        And" D2 | %1
 G2 FG/A/ G2 D2 | FGd^c d2 B2 | A g2 f/e/ d2 Tc2 | B4 z2 A2 | Bc/d/ dc Bc/d/ DG | AB/c/ BA G3 F | %7
"^2. seals      it    on       his  heart.       I   would  not   be     a         stran – ger  still     To      that   ce  –  les  – tial       place,   Where  I    for  ev – er" G>A B c/d/ e>d T^c2 | %8
 d4 z2 B2 | Be dc Be dc | B2 AG F3 F | G2 A2 Gg fe | d4 z2 dc | B2 A2 G2 D2 | %14
"^2. hope             to    dwell         Near    my       Re  –  dee  –  mer's   face." A>B c B/A/ G3 G | %15
 FA BA G2 TF2 | G6 |] %17
V:4
 G,2 | G,2 D,2 G,2 B,2 | A,G,F,E, D,2 G,2 | DCB,C D2 D,2 | G,6 F,2 | G,2 D,2 G,2 G,2 | %6
 C,2 D,2 G,2 D,2 | G,3 G, G,2 A,2 | D,4 z2 G,2 | G,2 G,2 G,2 G,2 | G,2 A,2 D,3 D, | %11
 E,2 F,2 G,2 A,2 | D6 D,2 | E,2 F,2 G,2 G,2 | C,3 D, G,3 E, | D,C, B,,C, D,2 D,2 | G,,6 |] %17

